X: 5
T:Rattling Bog
% Nottingham Music Database
S:Kevin Briggs, via EF
M:4/4
L:1/4
K:D
P:A
d/2e/2|"D"f2 "D7"f3/2e/2|"G"dB B3/2B/2|"D"Ad d/2c/2d/2e/2|"E7"fe "A7"e2|\
"D"f2 "D7"f3/2e/2|"G"dB B3/2B/2|"D"Aa af|"A7"ed "D"d:|
P:B
d/2e/2|"D"fd "A7"ed|"D"fd "A7"ed/2e/2|"D"fa af|"E7"ed "A7"ed/2e/2|
"D"fd "A7"ed|"D"fd "A7"ed/2e/2|"D"fa af|"A7"ed "D"d:|<end>
<start>
